X:1
T:Title
L:1/4
M:4/4
I:linebreak $
K:C
V:1 treble nm="Voice"
V:1
"C" e/ z/ f e c | A c G c/c/ | e/ z/ f e c | A c"G" G d/d/ | d/ z/ e d B |"G" A G d d/d/ | %6
 d/ z/ e d B |1[M:6/4] A G"C" c- c c/ z/ G/E/ :|2 A G"C" c/-c/ E/F/ G F/E/ |:[M:4/4]"C" E2 E G | %10
 c d e z/ d/ | e/ z/ a g2 | g e c e/e/ |"G" d c B B |1 B A/A/"C" G E |"G" f d B2 | %16
 B A/A/"C" G E :|2 d B B2 | B A/A/"C" G/E/G/G/ |[M:6/4] A/E/A/B/ c- c c c/c/ |] %20
